; G-Code generated by Simplify3D(R) Version 4.0.0
; May 4, 2018 at 10:04:58 PM
; Settings Summary
;   processName,Process1
;   applyToModels,Blank Half,Case Half
;   profileName,Creality CR-10 (modified)
;   profileVersion,2017-11-14 21:10:28
;   baseProfile,
;   printMaterial,PETG
;   printQuality,Medium
;   printExtruders,
;   extruderName,Primary Extruder
;   extruderToolheadNumber,0
;   extruderDiameter,0.4
;   extruderAutoWidth,1
;   extruderWidth,0.48
;   extrusionMultiplier,1.1
;   extruderUseRetract,1
;   extruderRetractionDistance,6
;   extruderExtraRestartDistance,0
;   extruderRetractionZLift,0.2
;   extruderRetractionSpeed,2400
;   extruderUseCoasting,1
;   extruderCoastingDistance,0.2
;   extruderUseWipe,0
;   extruderWipeDistance,5
;   primaryExtruder,0
;   layerHeight,0.2
;   topSolidLayers,2
;   bottomSolidLayers,2
;   perimeterOutlines,2
;   printPerimetersInsideOut,0
;   startPointOption,2
;   startPointOriginX,0
;   startPointOriginY,0
;   sequentialIslands,0
;   spiralVaseMode,0
;   firstLayerHeightPercentage,90
;   firstLayerWidthPercentage,125
;   firstLayerUnderspeed,0.5
;   useRaft,0
;   raftExtruder,0
;   raftTopLayers,2
;   raftBaseLayers,2
;   raftOffset,3
;   raftSeparationDistance,0.2
;   raftTopInfill,20
;   aboveRaftSpeedMultiplier,0.4
;   useSkirt,1
;   skirtExtruder,0
;   skirtLayers,1
;   skirtOutlines,2
;   skirtOffset,5
;   usePrimePillar,0
;   primePillarExtruder,999
;   primePillarWidth,12
;   primePillarLocation,7
;   primePillarSpeedMultiplier,1
;   useOozeShield,0
;   oozeShieldExtruder,999
;   oozeShieldOffset,2
;   oozeShieldOutlines,1
;   oozeShieldSidewallShape,1
;   oozeShieldSidewallAngle,30
;   oozeShieldSpeedMultiplier,1
;   infillExtruder,0
;   internalInfillPattern,Rectilinear
;   externalInfillPattern,Rectilinear
;   infillPercentage,30
;   outlineOverlapPercentage,15
;   infillExtrusionWidthPercentage,100
;   minInfillLength,5
;   infillLayerInterval,1
;   internalInfillAngles,45,-45
;   overlapInternalInfillAngles,0
;   externalInfillAngles,45,-45
;   generateSupport,0
;   supportExtruder,0
;   supportInfillPercentage,18
;   supportExtraInflation,2
;   supportBaseLayers,0
;   denseSupportExtruder,0
;   denseSupportLayers,0
;   denseSupportInfillPercentage,60
;   supportLayerInterval,2
;   supportHorizontalPartOffset,1.2
;   supportUpperSeparationLayers,1
;   supportLowerSeparationLayers,1
;   supportType,1
;   supportGridSpacing,4
;   maxOverhangAngle,45
;   supportAngles,0
;   temperatureName,Primary Extruder,Heated Bed
;   temperatureNumber,0,0
;   temperatureSetpointCount,1,1
;   temperatureSetpointLayers,1,1
;   temperatureSetpointTemperatures,245,60
;   temperatureStabilizeAtStartup,1,1
;   temperatureHeatedBed,0,1
;   temperatureRelayBetweenLayers,0,0
;   temperatureRelayBetweenLoops,0,0
;   fanLayers,1
;   fanSpeeds,0
;   blipFanToFullPower,0
;   adjustSpeedForCooling,1
;   minSpeedLayerTime,15
;   minCoolingSpeedSlowdown,40
;   increaseFanForCooling,0
;   minFanLayerTime,45
;   maxCoolingFanSpeed,100
;   increaseFanForBridging,0
;   bridgingFanSpeed,100
;   use5D,1
;   relativeEdistances,0
;   allowEaxisZeroing,1
;   independentExtruderAxes,0
;   includeM10123,0
;   stickySupport,1
;   applyToolheadOffsets,0
;   gcodeXoffset,0
;   gcodeYoffset,0
;   gcodeZoffset,0
;   overrideMachineDefinition,1
;   machineTypeOverride,0
;   strokeXoverride,300
;   strokeYoverride,300
;   strokeZoverride,400
;   originOffsetXoverride,0
;   originOffsetYoverride,0
;   originOffsetZoverride,0
;   homeXdirOverride,-1
;   homeYdirOverride,-1
;   homeZdirOverride,-1
;   flipXoverride,1
;   flipYoverride,-1
;   flipZoverride,1
;   toolheadOffsets,0,0|0,0|0,0|0,0|0,0|0,0
;   overrideFirmwareConfiguration,1
;   firmwareTypeOverride,RepRap (Marlin/Repetier/Sprinter)
;   GPXconfigOverride,r2
;   baudRateOverride,115200
;   overridePrinterModels,1
;   printerModelsOverride
;   startingGcode,M92 E108; Extruder Steps,M92 Z401; Z step adjustment ,G28 ; home all axes,G1 Z5 F3000 ; lift,G1 X20 Y2 F1500 ; avoid binder clips,G1 Z0.2 F3000 ; get ready to prime,G92 E0 ; reset extrusion distance,G1 X120 E10 F600 ; prime nozzle,G1 X150 F5000 ; quick wipe
;   layerChangeGcode,
;   retractionGcode,
;   toolChangeGcode,
;   endingGcode,G28 X0 ; home x axis,M106 S0 ; turn off cooling fan,M104 S0 ; turn off extruder,M140 S0 ; turn off bed,M84 ; disable motors
;   exportFileFormat,gcode
;   celebration,0
;   celebrationSong,Random Song
;   postProcessing,
;   defaultSpeed,2400
;   outlineUnderspeed,0.5
;   solidInfillUnderspeed,0.7
;   supportUnderspeed,0.8
;   rapidXYspeed,3600
;   rapidZspeed,1002
;   minBridgingArea,50
;   bridgingExtraInflation,0
;   bridgingExtrusionMultiplier,1
;   bridgingSpeedMultiplier,1
;   useFixedBridgingAngle,0
;   fixedBridgingAngle,0
;   applyBridgingToPerimeters,0
;   filamentDiameters,1.67|1.75|1.75|1.75|1.75|1.75
;   filamentPricesPerKg,25|46|46|46|46|46
;   filamentDensities,1.25|1.25|1.25|1.25|1.25|1.25
;   useMinPrintHeight,0
;   minPrintHeight,0
;   useMaxPrintHeight,0
;   maxPrintHeight,0
;   useDiaphragm,0
;   diaphragmLayerInterval,20
;   robustSlicing,1
;   mergeAllIntoSolid,0
;   onlyRetractWhenCrossingOutline,1
;   retractBetweenLayers,1
;   useRetractionMinTravel,0
;   retractionMinTravel,3
;   retractWhileWiping,0
;   onlyWipeOutlines,1
;   avoidCrossingOutline,0
;   maxMovementDetourFactor,3
;   toolChangeRetractionDistance,12
;   toolChangeExtraRestartDistance,-0.5
;   toolChangeRetractionSpeed,600
;   externalThinWallType,1
;   internalThinWallType,1
;   thinWallAllowedOverlapPercentage,10
;   singleExtrusionMinLength,1
;   singleExtrusionMinPrintingWidthPercentage,50
;   singleExtrusionMaxPrintingWidthPercentage,200
;   singleExtrusionEndpointExtension,0.2
;   horizontalSizeCompensation,0
G90
M82
M106 S0
M140 S60
M190 S60
M104 S245 T0
M109 S245 T0
M92 E108; Extruder Steps
M92 Z401; Z step adjustment 
G28 ; home all axes
G1 Z5 F3000 ; lift
G1 X20 Y2 F1500 ; avoid binder clips
G1 Z0.2 F3000 ; get ready to prime
G92 E0 ; reset extrusion distance
G1 X120 E10 F600 ; prime nozzle
G1 X150 F5000 ; quick wipe
G92 E0
G1 E-6.0000 F2400
G1 Z0.380 F1002
; process Process1
; layer 1, Z = 0.180
T0
; tool H0.200 W0.600
; skirt
G1 X102.222 Y95.560 F3600
G1 Z0.180 F1002
G1 E0.0000 F720
G92 E0
G1 X103.532 Y94.250 E0.1117 F1200
G1 X103.631 Y94.180 E0.1190
G1 X105.268 Y93.390 E0.2285
G1 X105.385 Y93.356 E0.2358
G1 X106.505 Y93.229 E0.3038
G1 X106.525 Y93.227 E0.3050
G1 X106.828 Y93.210 E0.3233
G1 X106.849 Y93.210 E0.3245
G1 X194.132 Y93.217 E5.5845
G1 X194.271 Y93.245 E5.5930
G1 X196.239 Y94.060 E5.7214
G1 X196.357 Y94.139 E5.7300
G1 X197.778 Y95.560 E5.8511
G1 X197.809 Y95.595 E5.8539
G1 X198.231 Y96.143 E5.8956
G1 X198.257 Y96.182 E5.8984
G1 X198.871 Y97.235 E5.9718
G1 X198.907 Y97.323 E5.9775
G1 X199.278 Y98.695 E6.0632
G1 X199.290 Y98.789 E6.0689
G1 X199.290 Y146.211 E8.9267
G1 X199.278 Y146.305 E8.9324
G1 X198.907 Y147.678 E9.0181
G1 X198.871 Y147.765 E9.0238
G1 X198.257 Y148.818 E9.0973
G1 X198.231 Y148.857 E9.1001
G1 X197.809 Y149.405 E9.1418
G1 X197.778 Y149.440 E9.1446
G1 X197.492 Y149.726 E9.1690
G1 X197.616 Y149.916 E9.1826
G1 X198.243 Y150.543 E9.2361
G1 X198.302 Y150.621 E9.2420
G1 X199.024 Y151.903 E9.3307
G1 X199.060 Y151.995 E9.3366
G1 X199.368 Y153.254 E9.4147
G1 X199.376 Y153.296 E9.4173
G1 X199.452 Y153.935 E9.4561
G1 X199.455 Y153.978 E9.4587
G1 X199.455 Y200.762 E12.2780
G1 X199.455 Y200.770 E12.2785
G1 X199.452 Y200.894 E12.2860
G1 X199.452 Y200.902 E12.2865
G1 X199.442 Y201.118 E12.2995
G1 X199.481 Y201.375 E12.3152
G1 X199.467 Y201.544 E12.3254
G1 X199.415 Y201.705 E12.3356
G1 X199.385 Y202.355 E12.3748
G1 X199.337 Y202.519 E12.3851
G1 X198.894 Y203.293 E12.4388
G1 X198.671 Y203.973 E12.4820
G1 X198.582 Y204.118 E12.4922
G1 X198.209 Y204.491 E12.5240
G1 X198.054 Y204.761 E12.5428
G1 X197.937 Y204.886 E12.5531
G1 X197.584 Y205.116 E12.5784
G1 X196.957 Y205.743 E12.6319
G1 X196.878 Y205.802 E12.6378
G1 X195.597 Y206.524 E12.7264
G1 X195.505 Y206.560 E12.7324
G1 X194.246 Y206.868 E12.8105
G1 X194.204 Y206.875 E12.8131
G1 X193.565 Y206.952 E12.8519
G1 X193.522 Y206.955 E12.8545
G1 X106.478 Y206.955 E18.1000
G1 X106.435 Y206.952 E18.1026
G1 X105.796 Y206.875 E18.1414
G1 X105.754 Y206.868 E18.1440
G1 X104.495 Y206.560 E18.2221
G1 X104.403 Y206.524 E18.2280
G1 X103.122 Y205.802 E18.3166
G1 X103.043 Y205.743 E18.3226
G1 X102.416 Y205.116 E18.3760
G1 X102.009 Y204.850 E18.4053
G1 X101.887 Y204.718 E18.4161
G1 X101.732 Y204.431 E18.4358
G1 X101.418 Y204.118 E18.4625
G1 X101.329 Y203.973 E18.4727
G1 X101.093 Y203.252 E18.5185
G1 X100.594 Y202.332 E18.5816
G1 X100.550 Y202.158 E18.5924
G1 X100.550 Y201.596 E18.6262
G1 X100.533 Y201.544 E18.6295
G1 X100.519 Y201.375 E18.6397
G1 X100.550 Y201.174 E18.6520
G1 X100.545 Y153.979 E21.4961
G1 X100.547 Y153.936 E21.4987
G1 X100.624 Y153.297 E21.5375
G1 X100.632 Y153.254 E21.5401
G1 X100.940 Y151.995 E21.6183
G1 X100.976 Y151.903 E21.6242
G1 X101.698 Y150.621 E21.7128
G1 X101.757 Y150.543 E21.7188
G1 X102.384 Y149.916 E21.7722
G1 X102.508 Y149.726 E21.7859
G1 X101.750 Y148.968 E21.8505
G1 X101.680 Y148.869 E21.8578
G1 X100.890 Y147.232 E21.9673
G1 X100.856 Y147.115 E21.9746
G1 X100.729 Y145.996 E22.0425
G1 X100.727 Y145.975 E22.0438
G1 X100.710 Y145.672 E22.0621
G1 X100.710 Y145.652 E22.0633
G1 X100.710 Y98.789 E24.8874
G1 X100.722 Y98.695 E24.8931
G1 X101.093 Y97.323 E24.9788
G1 X101.129 Y97.235 E24.9845
G1 X101.743 Y96.182 E25.0579
G1 X101.769 Y96.143 E25.0607
G1 X102.097 Y95.717 E25.0932
G1 X102.191 Y95.595 F1200
G1 X102.222 Y95.560 F1200
G1 X102.572 Y95.889 F3600
G92 E0
G1 X103.843 Y94.618 E0.1083 F1200
G1 X103.876 Y94.594 E0.1107
G1 X105.440 Y93.840 E0.2154
G1 X105.479 Y93.829 E0.2179
G1 X106.552 Y93.707 E0.2829
G1 X106.559 Y93.706 E0.2833
G1 X106.849 Y93.690 E0.3008
G1 X106.855 Y93.690 E0.3012
G1 X194.084 Y93.697 E5.5579
G1 X194.131 Y93.706 E5.5608
G1 X196.012 Y94.486 E5.6835
G1 X196.051 Y94.512 E5.6863
G1 X197.428 Y95.889 E5.8036
G1 X197.438 Y95.900 E5.8046
G1 X197.842 Y96.424 E5.8444
G1 X197.850 Y96.437 E5.8454
G1 X198.440 Y97.449 E5.9160
G1 X198.452 Y97.478 E5.9179
G1 X198.806 Y98.790 E5.9997
G1 X198.810 Y98.821 E6.0016
G1 X198.810 Y146.179 E8.8556
G1 X198.806 Y146.211 E8.8575
G1 X198.452 Y147.522 E8.9393
G1 X198.440 Y147.551 E8.9412
G1 X197.850 Y148.563 E9.0118
G1 X197.842 Y148.576 E9.0128
G1 X197.438 Y149.100 E9.0526
G1 X197.428 Y149.111 E9.0535
G1 X196.803 Y149.737 E9.1068
G1 X196.974 Y149.835 E9.1187
G1 X197.015 Y149.874 E9.1221
G1 X197.241 Y150.220 E9.1470
G1 X197.880 Y150.859 E9.2015
G1 X197.900 Y150.885 E9.2035
G1 X198.589 Y152.110 E9.2882
G1 X198.601 Y152.141 E9.2902
G1 X198.898 Y153.354 E9.3655
G1 X198.901 Y153.368 E9.3663
G1 X198.974 Y153.978 E9.4034
G1 X198.975 Y153.993 E9.4042
G1 X198.975 Y200.759 E12.2225
G1 X198.975 Y200.762 E12.2227
G1 X198.972 Y200.880 E12.2298
G1 X198.972 Y200.883 E12.2300
G1 X198.960 Y201.143 E12.2457
G1 X198.998 Y201.392 E12.2609
G1 X198.994 Y201.448 E12.2643
G1 X198.938 Y201.617 E12.2750
G1 X198.908 Y202.275 E12.3147
G1 X198.892 Y202.330 E12.3181
G1 X198.453 Y203.097 E12.3714
G1 X198.232 Y203.770 E12.4140
G1 X198.203 Y203.818 E12.4174
G1 X197.824 Y204.197 E12.4497
G1 X197.666 Y204.473 E12.4689
G1 X197.627 Y204.515 E12.4724
G1 X197.280 Y204.741 E12.4973
G1 X196.641 Y205.380 E12.5518
G1 X196.614 Y205.400 E12.5538
G1 X195.390 Y206.089 E12.6384
G1 X195.359 Y206.101 E12.6404
G1 X194.146 Y206.398 E12.7157
G1 X194.132 Y206.401 E12.7165
G1 X193.522 Y206.474 E12.7536
G1 X193.507 Y206.475 E12.7545
G1 X106.493 Y206.475 E17.9982
G1 X106.478 Y206.474 E17.9991
G1 X105.868 Y206.401 E18.0362
G1 X105.854 Y206.398 E18.0370
G1 X104.641 Y206.101 E18.1123
G1 X104.610 Y206.089 E18.1143
G1 X103.386 Y205.400 E18.1989
G1 X103.359 Y205.380 E18.2009
G1 X102.720 Y204.741 E18.2554
G1 X102.321 Y204.481 E18.2841
G1 X102.280 Y204.437 E18.2877
G1 X102.120 Y204.141 E18.3080
G1 X101.797 Y203.818 E18.3355
G1 X101.768 Y203.770 E18.3389
G1 X101.535 Y203.062 E18.3838
G1 X101.044 Y202.156 E18.4459
G1 X101.030 Y202.098 E18.4495
G1 X101.030 Y201.519 E18.4844
G1 X101.006 Y201.448 E18.4889
G1 X101.002 Y201.392 E18.4923
G1 X101.030 Y201.210 E18.5034
G1 X101.025 Y153.993 E21.3488
G1 X101.026 Y153.979 E21.3497
G1 X101.099 Y153.368 E21.3868
G1 X101.102 Y153.354 E21.3876
G1 X101.399 Y152.141 E21.4629
G1 X101.411 Y152.110 E21.4649
G1 X102.100 Y150.885 E21.5496
G1 X102.120 Y150.859 E21.5516
G1 X102.759 Y150.220 E21.6060
G1 X103.019 Y149.821 E21.6347
G1 X103.063 Y149.780 E21.6383
G1 X103.179 Y149.718 E21.6463
G1 X102.118 Y148.657 E21.7367
G1 X102.094 Y148.624 E21.7391
G1 X101.340 Y147.060 E21.8438
G1 X101.329 Y147.021 E21.8462
G1 X101.207 Y145.948 E21.9113
G1 X101.206 Y145.941 E21.9117
G1 X101.190 Y145.652 E21.9292
G1 X101.190 Y145.645 E21.9296
G1 X101.190 Y98.821 E24.7513
G1 X101.194 Y98.790 E24.7532
G1 X101.548 Y97.478 E24.8351
G1 X101.560 Y97.449 E24.8370
G1 X102.150 Y96.437 E24.9076
G1 X102.158 Y96.424 E24.9085
G1 X102.449 Y96.046 E24.9372
G1 X102.562 Y95.900 F1200
G1 X102.572 Y95.889 F1200
G92 E0
G1 E-6.0000 F2400
G1 Z0.380 F1002
; outer perimeter
G1 X106.730 Y99.566 F3600
G1 Z0.180 F1002
G1 E0.0000 F2400
G92 E0
G1 X107.066 Y99.230 E0.0287 F600
G1 X192.942 Y99.237 E5.2038
G1 X193.270 Y99.566 E5.2318
G1 X193.270 Y145.434 E7.9960
G1 X192.934 Y145.770 E8.0246
G1 X107.066 Y145.770 E13.1993
G1 X106.730 Y145.434 E13.2280
G1 X106.730 Y99.766 E15.9801
G1 X106.730 Y99.566 F600
; inner perimeter
G1 X107.330 Y99.830 F3600
G92 E0
G1 X192.670 Y99.837 E5.1429 F900
G1 X192.670 Y145.170 E7.8748
G1 X107.330 Y145.170 E13.0177
G1 X107.330 Y100.030 E15.7380
G1 X107.330 Y99.830 F900
; solid layer
G1 X107.840 Y144.326 F3600
G92 E0
G1 X108.174 Y144.660 E0.0285 F840
G1 X109.022 Y144.660 E0.0796
G1 X107.840 Y143.478 E0.1804
G1 X107.840 Y142.629 E0.2315
G1 X109.871 Y144.660 E0.4046
G1 X110.719 Y144.660 E0.4558
G1 X107.840 Y141.781 E0.7012
G1 X107.840 Y140.932 E0.7523
G1 X111.568 Y144.660 E1.0701
G1 X112.416 Y144.660 E1.1212
G1 X107.840 Y140.084 E1.5112
G1 X107.840 Y139.235 E1.5624
G1 X113.265 Y144.660 E2.0247
G1 X114.113 Y144.660 E2.0759
G1 X107.840 Y138.387 E2.6106
G1 X107.840 Y137.538 E2.6617
G1 X114.962 Y144.660 E3.2687
G1 X115.810 Y144.660 E3.3198
G1 X107.840 Y136.690 E3.9991
G1 X107.840 Y135.841 E4.0503
G1 X116.659 Y144.660 E4.8019
G1 X117.507 Y144.660 E4.8530
G1 X107.840 Y134.992 E5.6770
G1 X107.840 Y134.144 E5.7281
G1 X118.356 Y144.660 E6.6244
G1 X119.205 Y144.660 E6.6755
G1 X107.840 Y133.295 E7.6441
G1 X107.840 Y132.447 E7.6952
G1 X120.053 Y144.660 E8.7361
G1 X120.902 Y144.660 E8.7873
G1 X107.840 Y131.598 E9.9005
G1 X107.840 Y130.750 E9.9516
G1 X121.750 Y144.660 E11.1371
G1 X122.599 Y144.660 E11.1883
G1 X107.840 Y129.901 E12.4461
G1 X107.840 Y129.053 E12.4972
G1 X123.447 Y144.660 E13.8274
G1 X124.296 Y144.660 E13.8785
G1 X107.840 Y128.204 E15.2810
G1 X107.840 Y127.356 E15.3321
G1 X125.144 Y144.660 E16.8069
G1 X125.993 Y144.660 E16.8580
G1 X107.840 Y126.507 E18.4052
G1 X107.840 Y125.659 E18.4563
G1 X126.841 Y144.660 E20.0757
G1 X127.690 Y144.660 E20.1268
G1 X107.840 Y124.810 E21.8186
G1 X107.840 Y123.962 E21.8697
G1 X128.538 Y144.660 E23.6338
G1 X129.387 Y144.660 E23.6849
G1 X107.840 Y123.113 E25.5213
G1 X107.840 Y122.265 E25.5724
G1 X130.235 Y144.660 E27.4811
G1 X131.084 Y144.660 E27.5322
G1 X107.840 Y121.416 E29.5132
G1 X107.840 Y120.568 E29.5643
G1 X131.932 Y144.660 E31.6176
G1 X132.781 Y144.660 E31.6688
G1 X107.840 Y119.719 E33.7944
G1 X107.840 Y118.870 E33.8455
G1 X133.630 Y144.660 E36.0435
G1 X134.478 Y144.660 E36.0946
G1 X107.840 Y118.022 E38.3649
G1 X107.840 Y117.173 E38.4160
G1 X135.327 Y144.660 E40.7586
G1 X136.175 Y144.660 E40.8097
G1 X107.840 Y116.325 E43.2246
G1 X107.840 Y115.476 E43.2757
G1 X137.024 Y144.660 E45.7630
G1 X137.872 Y144.660 E45.8141
G1 X107.840 Y114.628 E48.3736
G1 X107.840 Y113.779 E48.4247
G1 X138.721 Y144.660 E51.0566
G1 X139.569 Y144.660 E51.1077
G1 X107.840 Y112.931 E53.8119
G1 X107.840 Y112.082 E53.8630
G1 X140.418 Y144.660 E56.6395
G1 X141.266 Y144.660 E56.6906
G1 X107.840 Y111.234 E59.5394
G1 X107.840 Y110.385 E59.5905
G1 X142.115 Y144.660 E62.5116
